X: 7833
T:Slip jig from Na Fili
R:Slip jig
O:Ireland
M:9/8
K:G
D2G G2A B2c|efe d2e g2z|\
D2G G2B d2B|A2z B2G E2G|\
D2G G2A B2d|efe d2e g2a|
b2a g2e d2B|A2z B2G E2G ::\
B2d d2B d2B|d3 def g3|
B2d d2B d2B|A3 B2G E2G|\
B2d d2B d2B|d3 def g2a|\
b2a g2e d2B|A3 B2A E2G:|
